packages/icons/src/plugin-ci-step.svg

<svg viewBox="0 0 40 41" xmlns="http://www.w3.org/2000/svg"><path clip-rule="evenodd" d="m17.8137 8.46857-7.84654.00015h.0003v8.99108c-.00001.5499-.43254.9714-.9371 1.0267-.59902.0656-1.6317.2564-2.50107.79-.8425.5171-1.52908 1.3488-1.52908 2.7684 0 1.4003.66638 2.1618 1.47891 2.6083.84789.4658 1.86476.5871 2.47778.6116.5337.0214 1.01055.4531 1.01055 1.0324v7.1694h24.80785l.2245-24.99719h.0001c-2.2596-.00002-4.568-.00017-6.4319-.00028-.6437-.00004-1.2344-.00008-1.7517-.0001-.0012 0-.0019.00011-.0032.00065-.0017.0007-.0051.00254-.0095.00664-.0094.00898-.0166.02272-.0181.03784-.0658.66034-.2663 1.87644-.8987 2.94134-.6485 1.0922-1.7604 2.0307-3.5797 2.0307-1.8187 0-2.928-.9381-3.5733-2.0305-.629-1.0649-.8257-2.28087-.8894-2.94184-.0015-.01522-.0087-.02901-.0181-.03801-.0043-.00411-.0078-.00595-.0095-.00664-.0012-.00052-.0019-.00064-.0031-.00064zm-7.84655-.99985 7.84655-.00015c.5558.00001.9773.44066 1.0263.94942.0584.60669.2362 1.65081.755 2.52921.5026.8508 1.3147 1.539 2.7121 1.539 1.3982 0 2.2136-.6891 2.7196-1.5412.5221-.8792.7031-1.92391.7635-2.52992.0505-.50752.4718-.94608 1.0261-.94605.5171.00002 1.1074.00006 1.7508.0001 1.864.00011 4.1729.00026 6.4328.00028.556 0 1.005.45331 1.0001 1.00898l-.2245 24.99721c-.0049.5487-.4513.991-1.0002.991h-24.80785c-.5524 0-1.00021-.4477-1.00021-1v-7.1694-.0001c.00003-.0006.0003-.0058-.009-.0151-.0107-.0106-.02598-.0174-.04134-.018-.66766-.0267-1.86919-.1574-2.91953-.7345-1.0857-.5965-1.99737-1.6692-1.99737-3.4846 0-1.8293.92417-2.9566 2.00599-3.6206 1.05496-.6476 2.26016-.8601 2.91543-.9319.01477-.0016.02865-.0088.03797-.0187.00839-.009.00785-.0138.00785-.0139l.00001-8.99108c0-.55189.44711-.99999.9999-1z" fill="#4f5162" fill-rule="evenodd"/></svg>

<svg viewBox="0 0 40 41" xmlns="http://www.w3.org/2000/svg">
<path fill-rule="evenodd" clip-rule="evenodd" d="M17.8137 8.46857L9.96716 8.46872L9.96746 8.46872L9.96746 17.4598C9.96745 18.0097 9.53492 18.4312 9.03036 18.4865C8.43134 18.5521 7.39866 18.7429 6.52929 19.2765C5.68679 19.7936 5.00021 20.6253 5.00021 22.0449C5.00021 23.4452 5.66659 24.2067 6.47912 24.6532C7.32701 25.119 8.34388 25.2403 8.9569 25.2648C9.4906 25.2862 9.96745 25.7179 9.96745 26.2972V33.4666L34.7753 33.4666L34.9998 8.46941L34.9999 8.46941C32.7403 8.46939 30.4319 8.46924 28.568 8.46913C27.9243 8.46909 27.3336 8.46905 26.8163 8.46903C26.8151 8.46903 26.8144 8.46914 26.8131 8.46968C26.8114 8.47038 26.808 8.47222 26.8036 8.47632C26.7942 8.4853 26.787 8.49904 26.7855 8.51416C26.7197 9.1745 26.5192 10.3906 25.8868 11.4555C25.2383 12.5477 24.1264 13.4862 22.3071 13.4862C20.4884 13.4862 19.3791 12.5481 18.7338 11.4557C18.1048 10.3908 17.9081 9.17483 17.8444 8.51386C17.8429 8.49864 17.8357 8.48485 17.8263 8.47585C17.822 8.47174 17.8185 8.4699 17.8168 8.46921C17.8156 8.46869 17.8149 8.46857 17.8137 8.46857ZM9.96715 7.46872L17.8137 7.46857C18.3695 7.46858 18.791 7.90923 18.84 8.41799C18.8984 9.02468 19.0762 10.0688 19.595 10.9472C20.0976 11.798 20.9097 12.4862 22.3071 12.4862C23.7053 12.4862 24.5207 11.7971 25.0267 10.945C25.5488 10.0658 25.7298 9.02109 25.7902 8.41508C25.8407 7.90756 26.262 7.469 26.8163 7.46903C27.3334 7.46905 27.9237 7.46909 28.5671 7.46913C30.4311 7.46924 32.74 7.46939 34.9999 7.46941C35.5559 7.46941 36.0049 7.92272 36 8.47839L35.7755 33.4756C35.7706 34.0243 35.3242 34.4666 34.7753 34.4666L9.96745 34.4666C9.41505 34.4666 8.96724 34.0189 8.96724 33.4666V26.2972L8.96724 26.2971C8.96727 26.2965 8.96754 26.2913 8.95824 26.282C8.94754 26.2714 8.93226 26.2646 8.9169 26.264C8.24924 26.2373 7.04771 26.1066 5.99737 25.5295C4.91167 24.933 4 23.8603 4 22.0449C4 20.2156 4.92417 19.0883 6.00599 18.4243C7.06095 17.7767 8.26615 17.5642 8.92142 17.4924C8.93619 17.4908 8.95007 17.4836 8.95939 17.4737C8.96778 17.4647 8.96724 17.4599 8.96724 17.4598L8.96725 8.46872C8.96725 7.91683 9.41436 7.46873 9.96715 7.46872Z" fill="#4F5162"/>
</svg>
